img/workflow.svg

<svg width="60" height="60" viewBox="0 0 60 60" fill="none" xmlns="http://www.w3.org/2000/svg">
<g clip-path="url(#clip0_1_21733)">
<path d="M9.555 20.625V5.625C9.65055 4.54474 10.1677 3.54556 10.9944 2.84373C11.8212 2.1419 12.8911 1.79388 13.9725 1.875H53.7225C54.8035 1.79457 55.8728 2.1429 56.699 2.84466C57.5252 3.54642 58.0419 4.5452 58.1375 5.625V31.875C58.0419 32.9548 57.5252 33.9536 56.699 34.6553C55.8728 35.3571 54.8035 35.7054 53.7225 35.625H43.125" stroke="#585E76" stroke-width="3.75" stroke-linecap="round" stroke-linejoin="round"/>
<path d="M9.555 13.125H58.125" stroke="#008A27" stroke-width="3.75" stroke-linecap="round" stroke-linejoin="round"/>
<path d="M1.875 55.125C1.95145 55.9889 2.36493 56.788 3.026 57.3495C3.68708 57.9109 4.5426 58.1895 5.4075 58.125H32.0925C32.9574 58.1895 33.8129 57.9109 34.474 57.3495C35.1351 56.788 35.5486 55.9889 35.625 55.125V31.125C35.5486 30.2611 35.1351 29.462 34.474 28.9005C33.8129 28.3391 32.9574 28.0605 32.0925 28.125H5.4075C4.5426 28.0605 3.68708 28.3391 3.026 28.9005C2.36493 29.462 1.95145 30.2611 1.875 31.125V55.125Z" stroke="#1672EB" stroke-width="3.75" stroke-linecap="round" stroke-linejoin="round"/>
<path d="M15.12 37.5L23.9525 43.3125L15.12 49.125" stroke="#1672EB" stroke-width="3.75" stroke-linecap="round" stroke-linejoin="round"/>
<path d="M47 58.125C49.8425 58.125 51.5 54.985 51.5 52.5V43.125" stroke="#008A27" stroke-width="3.75" stroke-linecap="round" stroke-linejoin="round"/>
<path d="M58.125 49.125L51.3325 43.125L44.5375 49.125" stroke="#008A27" stroke-width="3.75" stroke-linecap="round" stroke-linejoin="round"/>
</g>
<defs>
<clipPath id="clip0_1_21733">
<rect width="60" height="60" fill="white"/>
</clipPath>
</defs>
</svg>

<svg width="60" height="60" fill="none" xmlns="http://www.w3.org/2000/svg">
    <g clip-path="url(#a)" stroke-width="3.75" stroke-linecap="round" stroke-linejoin="round">
        <path d="M9.555 20.625v-15a4.125 4.125 0 0 1 4.418-3.75h39.75a4.125 4.125 0 0 1 4.415 3.75v26.25a4.125 4.125 0 0 1-4.416 3.75H43.125" stroke="#585E76"/>
        <path d="M9.555 13.125h48.57" stroke="#008A27"/>
        <path d="M1.875 55.125a3.3 3.3 0 0 0 3.532 3h26.686a3.3 3.3 0 0 0 3.532-3v-24a3.3 3.3 0 0 0-3.532-3H5.407a3.3 3.3 0 0 0-3.532 3v24Z" stroke="#1672EB"/>
        <path d="m15.12 37.5 8.833 5.813-8.833 5.812" stroke="#1672EB"/>
        <path d="M47 58.125c2.843 0 4.5-3.14 4.5-5.625v-9.375" stroke="#008A27"/>
        <path d="m58.125 49.125-6.792-6-6.795 6" stroke="#008A27"/>
    </g>
    <defs>
        <clipPath id="a">
            <path fill="#fff" d="M0 0h60v60H0z"/>
        </clipPath>
    </defs>
</svg>
